X: 633
T: Adam The Poacher
R: hornpipe
M: 4/4
K: Dminor
|:DFAc A2 FE|DFEF DFEF|DFAc A2 FE|1 DFEF D2 A,2:|2 DFEF D4||
K:D
GBdB GBdB|GABc d2 cB|A2 AB A2 AF|DFEF D2 A,2||

